X:52
T:Trip to the Compost
A:Ben Bolker
N:thanks to Susie Lorand
M:6/8
K:G
D |: EDD FDD | GFG A2 B | \
       cBA BAG | ECC CDE  \
    |1 EDD FDD | GFG A2 B | \
       cBA BAG | ECE D2 D | \
    :|2 FED GFG | Ad^c d2 e | \
        gfe dcA | GEC A,3 | \
   DD[df] DD[df] | DD[df] C3 | \
   DCD EcB | AGE A,3 | \
   DD[df] DD[df] | DD[df] C3 | \
   DCD EcB | AGE D3 |
   DD[df] DD[df] | DD[df] C3 | \
   DCD EFG | GFG [A2A2] e | \
   age dcA | GEC A,3 | \
   DED dcA | GEC D3 ||
